X: 26677
T: Midsummer's Night
R: reel
M: 4/4
K: Adorian
|:egdB ABAG|EG~G2 EGDG|egdB ~A2 Bd|(3efg fa gedg|
egdB ABAG|EG~G2 EGDE|~G3A BA (3Bcd|egdB BA~A2:|egdB cAFA||
|:~G3A BG (3Bcd|~g3a baga|bage dG (3Bcd|egdg edBA|
~G3A BG (3Bcd|~g3a baga|bage dG (3Bcd|~e2ge edBA:|~e2ge edBd||

